X:34 
T:Polka, A
S:unknown, photocopy. 
M:2/4l
I:speed 300
K:D
|:e2fe d2B2 | B2A2 Bcd2 | e2fe d2B2 | B2A2 A4 | 
e2fe d2B2 | B2A2 Bcd2 | a2f2 g2c2 | e2d2 d4 | 
f3e f2A2 | Bcd2 e2f2 | g3f g2a2 | b2a2 fga2 | 
f3e f2A2 | Bcd2 e2f2 | a2ba g2c2 | e2d2 d4 :|
